X:1
T:Mon cueur se recommande
T:Geert van Turnhout
T:Source : La fleur des chansons à 3---Louvain---P.Phalèse---1574. Editor : André Vierendeels (05/09/18) Notes : Original clefs : G2, C1, C3 Original note values have been halved Editorial accidentals above the staff  
T:Mon cueur se recommande
T:©
T:©
T:©
T:©
T:©
C:Geert van Turnhout
Z:©
%%score [ 1 2 3 ]
L:1/8
Q:1/4=96
M:2/2
K:F
V:1 treble nm="Soprano 1" snm="S 1"
V:2 treble nm="Soprano 2" snm="S 2"
V:3 treble-8 nm="Tenor" snm="T"
V:1
 z4 d4 | d2 G2 _e3 e | c2 d2 A2 d2 | c2 B2 c2 A2 | G8- | G4 z2 g2 | g2 c2 f3 e | d2 d2 G2 G2 | %8
w: Mon|cueur se re- cum-|mand' à vous, se|re- com- mand' à|vous,|_ mon|cueur se re- com-|mand' à vous, se|
 c3 G B2 A2 | B4 z2 d2 | f6 e2 | d2 c2 d4- | d2 c2 B4 | A2 d4 f2 | z4 z2 d2 | _e6 d2 | c2 f4 d2 | %17
w: re- com- mand' à|vous, tout|plain d'en-|nuy et de|_ mar- ty-|re, tout plain,|tout|plain d'en-|nuy et de|
 d2 B3 A/G/ A2 | B4 z2 c2 | d3 e f4 | z2 z d ddd^c | d4 z4 | z2 B3 B A2 | G2 G2 B4- | B2 A2 G4 | %25
w: mar- ty- * * *|re, au|moins _ _|en des- pit des ia-|loux,|fai- tes qu'à|dieu vous puis-|* se di-|
 F2 f2 f2 e2 | d2 c2 z2 d2 | f3 f f2 f2 | ef g4 f2 | z2 ^f2 g2 fd- | ddcB A2 f2 | f2 f3 fdd- | %32
w: re, vous puis- se|di- re, ma|bou- che qui vous|sou- loit ri- re|et con- ter pro-|* pos gra- ti- eux, ne|fait main- te- nant que|
 dd ^c2 d4 | z2 A2 c2 c2 | d4 c4 | B2 AG A2 A2 | B4 z2 c2 | d4 c4 | B2 AG A4 | =B2 c4 c2 | =B8 |] %41
w: _ mau- di- re,|ceux qui m'ont|ban- ny|de _ _ _ voz|yeux, ceux|qui m'ont|ban- * * *|ny de voz|yeux.|
V:2
 G4 G2 D2 | B3 B G2 G2 | AGFE F2 G2 | C2 G2 G2 F2 | G2 d2 d2 G2 | d3 d c2 B2- | BA/G/ A2 D2 D2- | %7
w: Mon cueur se|re- com- mand' à|vous, _ _ _ _ se|re- com- mand' à|vous, mon cueur se|re- com- mand' à|_ _ _ _ vous, se|
 D2 B3 B G2 |"^#""^#" AG G3 F/E/ F2 | G2 G2 B4- | B2 A2 G4 | z2 A2 B4- | B2 A2 G4 | F2 A2 B4- | %14
w: _ re- com- mand'|à _ _ _ _ _|vous, tour plain|_ d'en- nuy|et de|_ mar- ty-|re, tout plain|
 B2 A2 G2 F2 | G2 GF GA B2- | B2 A2 B4- | B4 z2 c2 | d2 B3 A/G/ A2 | B4 A2 AA | AGAF GDFE | %21
w: _ d'en- nuy et|de mar- ty- * * *|* * re,|_ au|moins, au- * * *|moins, en des- pit|des ia- loux, en des- pit des ia-|
 D4 F3 F | E2 D3 D F2- | F2 E2 G4 | F4 z2 B2- | BB A2 G2 G2 | B2 A2 G4 | FD A3 A A2 | A2 GA B4 | %29
w: loux, fai- tes|qu'à dieu vous puis-|* se di-|re, fai-|* tes qu'à dieu vous|puis- se di-|re, ma bou- che qui|vous sou- loit ri-|
 A2 A2 B2 AB- | BBAG F4 | B2 B B2 BFF | G2 E2 D4 |"^-natural" z2 F2 G2 A2 | B4 A2 A2- | %35
w: re et con- ter pro-|* pos gra- ti- eux,|ne fait main- te- nant que|mau- di- re,|ceux qui m'ont|ban- ny de-|
"^#" AG G4 F2 | G4 z2 G2 | B2 B2 A2 G2 | FD G4 F2 | G8- | G8 |] %41
w: * * * voz|yeux, ceux|qui m'ont ban- ny|de _ _ voz|yeux.|_|
V:3
 z8 | z8 |"^b" z2 d2 d2 G2 | _e3 e c2 d2 | G4 z2 g2 | g2 d2 _e3 d |"^b" c2 c2 B4 | z2 G2 _e3 e | %8
w: ||Mon cueur se|re- com- mand' à|vous, mon|cueur se re- com-|mand' à vous,|se re- com-|
 c4 d4 | G8 | z2 A2 B4- | B2 A2 G2 G2 | B2 F2 G4 | d4 z2 d2 | _e6 d2 | c3 c _e2 B2 | %16
w: mand' à|vous,|tout plain|_ d'en- nuy et|de mar- ty-|re, tout|plain d'en-|nuy et de mar-|
"^b" f2 fe dc B2- | B2 B2 f4 | z2 B2 f4 | z2 d2 ddd^c |"^#" dBcd GB A2 | z2 B3 B A2 | G3 G B2 F2 | %23
w: ty- * * * * re,|_ au moins,|au moins,|en des- pit des ia-|loux, en des- pit des ia- loux,|fai- tes qu'à|dieu vous puis- se|
 c4 G2 G2 | B2 F2 G4 |"^-natural" d4 z4 | z4 G4 | d3 d d2 d2 | cd _e4 d2 | z2 d2 g2 dB- | BBfg d4 | %31
w: di- re, vous|puis- se di-|re,|ma|bou- che qui vou|sou- loit ri- re,|et con- ter pro-|* pos gra- ti- eux,|
 z2 B2 BBBB | GG g4 ^f2 | z2 d2 c2 c2 | Bcde f2 c2 | d2 _e2 d4 | z2 G2 c2 c2 | Bcde f2 c2 | %38
w: ne fait main- te- nant|que mau- di- re,|ceux qui m'ont|ban- * * * * ny|de voz yeux,|ceux qui m'ont|ban- * * * * ny|
"^b" d2 e2 d4 |"^#" z2 c4 c2 | G8 |] %41
w: de voz yeux,|de voz|yeux.|

